!!!OTL: Zhanzai lengkanshang manhuar
!!!ARE: Asia, China,ÿQinghai Haibei 
!! I, 235, 1)
!!!SCT: C2078
!!!YEM: Copyright 1995, estate of Helmut Schaffrath.
**kern
*ICvox
*Ivox
*M2/4
*k[f#c#g#]
*A:
{4ee
8dd#
8ee
=1
4ff#
16bb
16ccc#
8aa
=2
[2bb
=3
4.bb]
8eee
=4
8.aa
16bb
8aa
8ff#
=5
4.ee
8dd#}
=6
{4ee
8dd
8ee
=7
4ff#
8bb
8ccc#
=8
8aa
8bb
16bb
16ccc#
8ff#
=9
4ee
8ff#
16ee
16ff#
=10
8ee
8dd#
4b
=11
8ee
8dd
8ee
8ff#
=12
[2ee
=13
8ee]
4.r}
==
!!!AGN: Shange, Yangliujieling
!! Hui Han
!!!ONB: ESAC (Essen Associative Code) Database: SENGANSU
!!!AMT: simple duple
!!!AIN: vox
!!!EED: Helmut Schaffrath
!!!EEV: 1.0
*-
!!!ONB: Tied note syntax fixed by Craig Sapp, 2004/05/03/
